X: 9
T: Drops Of Brandy, The
Z: UPipes & harp
S: https://thesession.org/tunes/388#setting48081
R: slip jig
M: 9/8
L: 1/8
K: Gmaj
ded BGB BGB|ded BGB c2A|ded BGB BGB|cBc A2 B cBA|
ded BGB BGB|ded BGB c2A|ded BGB BGB|cBc A2 B cBA||
GB/c/d gdB gdB|GB/c/d gdB cBA|GB/c/d gdB gdB|cBc AFA cBA|
GB/c/d gdB gdB|GB/c/d gdB cBA|GB/c/d gba gdB|cBc A2 B cBA||

